X: 1
T: Holloway
R: reel
Z: 2010 John Chambers <jc:trillian.mit.edu>
M: C|
L: 1/8
K: D
|:"D"fa2f a2fa-| "D"abaf ed3  |  "G"B3A   BABc |  "D"dcdA    FA3 |
| "D"fa2f a2fa-| "D"abaf ed3  |  "G"B3A   BcdB | "A7"AFEF "D"D4 :|
|:"G"B4   d3e  | "D"fede fa3  | "Bm"b2b2- b2a2 |     b2af-  fed2 |
| "G"B4   d3e  | "D"fede fa2f | "Bm"b2af- fedf | "A7"edc2 "D"d4 :|
